!!!!SEGMENT: 028_13-24-1a-C-015.krn
!!!COM: Chopin, Fryderyk
!!!OTL: XV.
!!!OPS: Op. 28
!!!PTL: 24 PRÉLUDES POUR Le Piano.
!!!PPR: Catelin
!!!PPP: Paris
!!!NIFC-rismID: 1001065081
!!!NIFC-shelfmark: PL-Wbfc 6584/n
!!!OMD: Sostenuto.
**kern	**kern	**dynam
*part1	*part1	*part1
*	*I"XV.	*
*staff2	*staff1	*
*clefF4	*clefG2	*
*k[b-e-a-d-g-]	*k[b-e-a-d-g-]	*
*D-:	*D-:	*
*M4/4	*M4/4	*
*met(c)	*met(c)	*
*MM80	*MM80	*
=1	=1	=1
*ped	*	*
8D-L	(>8.ffL/	p
8A-	.	.
.	16dd-Jk	.
!LO:N:vis=2	!	!
8f 8d-	2a-	.
8A-J	.	.
8A-L	.	.
8A-	.	.
8f 8d-	4b-/	.
8A-J	.	.
*Xped	*	*
.	.	.
=2	=2	=2
*ped	*	*
!LO:N:vis=2	!	!
8g->L 8e->	2.cc/	.
8A-	.	.
8A-	.	.
8A-J	.	.
8B-L	.	.
*Xped	*	*
8A-	.	.
*ped	*	*
8f> 8d->	4dd-/	.
8A-J	.	.
*Xped	*	*
.	.	.
=3	=3	=3
*^	*	*
*ped	*	*	*
!	!LO:N:n=2:vis=2.	!	!
8ryy	8g->L 8c>\	8.ee-L>	.
4A-	16A-\L	.	.
*Xped	*	*	*
.	16a->\J	16ffJk	.
*ped	*	*	*
!	!LO:N:vis=2	!	!
.	8b->\	2gg-/	.
4ryy	8A-\J	.	.
.	8A-\L	.	.
*Xped	*	*	*
4A-	8A-\	.	.
*ped	*	*	*
.	8a-> 8d->\	4ff/	.
8ryy	8A-\J	.	.
*Xped	*	*	*
.	.	.	.
*v	*v	*	*
=4	=4	=4
*ped	*	*
!LO:N:n=2:vis=2	!	!
8a->L< 8c>	4.ff/	.
8A-	.	.
8g->	.	.
*Xped	*	*
8A-J	8ee-/	.
*ped	*	*
8f>L< 8d->	4dd-/	.
*Xped	*	*
8A-	.	.
.	8qee-/	.
*ped	*	*
*	*rscale:2	*
!	!LO:TX:b:t=P:note-head-side tuplet number:problem	!
!	!LO:TUP:b	!
8g-> 8c>	(<28ee-L>	.
.	28ff	.
.	28ee-	.
.	28ddn	.
8A-J	.	.
.	28ee-	.
*Xped	*	*
.	28ff	.
.	28gg-J)	.
*	*rscale:1	*
!!LO:LB:g=original
=5	=5	=5
*ped	*	*
8D-L	8.ffL>	.
8A-	.	.
.	16dd-Jk	.
!LO:N:vis=2	!	!
8f 8d-	2a-	.
8A-J	.	.
8A-L	.	.
8A-	.	.
*Xped	*	*
8A-	4b-/	.
8A-J	.	.
=6	=6	=6
*ped	*	*
!LO:N:vis=2	!	!
8g-> 8e->L	2.cc/	.
8A-	.	.
8A-	.	.
8A-J	.	.
*Xped	*	*
8B-L	.	.
8A-	.	.
*ped	*	*
8f> 8d->	4dd-/	.
8A-J	.	.
*Xped	*	*
.	.	.
=7	=7	=7
*^	*	*
*ped	*	*	*
!	!LO:N:n=2:vis=2.	!	!
8ryy	8g->L 8c>\	8.ee-L>	.
4A-	16A-\L	.	.
*Xped	*	*	*
.	16a->\J	16ffJk	.
*ped	*	*	*
!	!LO:N:vis=2	!	!
.	8b->\	2gg-/	.
2ryy	8A-\J	.	.
.	8A-\L	.	.
*Xped	*	*	*
.	8A-\	.	.
*ped	*	*	*
.	8a-> 8d->\	4ff/	.
8ryy	8A-\J	.	.
*Xped	*	*	*
.	.	.	.
*v	*v	*	*
=8	=8	=8
*ped	*	*
!LO:N:n=2:vis=2	!	!
8a-> 8c>L	4.ff/	.
8A-	.	.
8g->	.	.
*Xped	*	*
8A-J	8ee-/	.
*ped	*	*
8d-L 8f	4dd-)	.
8A-	.	.
8d- 8f	(>8ccL	.
*Xped	*	*
8A-J	8dd-J	.
=9	=9	=9
*ped	*	*
8AA-L	4ee-	.
8A-	.	.
8e- 8c	2ee-	.
*Xped	*	*
8A-J	.	.
*ped	*	*
8e-L 8c-X	.	.
*Xped	*	*
8A-	.	.
*ped	*	*
8f 8c- 8D-	4ff	.
8d-J	.	.
*Xped	*	*
.	.	.
=10	=10	=10
*ped	*	*
8B-L 8G-	8gg-L	.
8d-	8ff	.
8g- 8B-	8ee-	.
*Xped	*	*
8d-J	8dd-J	.
*ped	*	*
8D-L	2ff	.
8A-	.	.
8f 8d-	.	.
*Xped	*	*
8A-J	.	.
!!LO:LB:g=original
=11	=11	=11
*ped	*	*
8E-L	8ee-L	.
8A-	8cc-X	.
*Xped	*	*
8e- 8c-X	8b-	.
8A-J	8a-J	.
*ped	*	*
8E-L	4b-	.
8Gn	.	.
.	8qqcc-/L	.
.	8qqb-/	.
.	8qqa-/J	.
8e- 8d-	8.b-L	.
*Xped	*	*
8GJ	.	.
.	16cc-Jk	.
=12	=12	=12
*ped	*	*
8AA-L	4a-\)	.
8A-	.	.
8e- 8c	(4ee-	.
*Xped	*	*
8A-J	.	.
8d-L 8B-	4dd-	.
8A-	.	.
8f-X 8d-	4ff-X	.
8A-J	.	.
=13	=13	=13
*ped	*	*
8AA-L	4ee-	.
8A-	.	.
!LO:N:vis=2	!	!
8e- 8c-	2ee-\	.
8A-J	.	.
8A-L	.	.
8A-	.	.
*Xped	*	*
8f 8c-	4ff	.
8A-J	.	.
=14	=14	=14
*ped	*	*
8E-L	8gg-L	.
8G-	8ff	.
*Xped	*	*
8g- 8B-	8ee-	.
8G-J	8dd-J	.
*ped	*	*
8BB-L	[>2ff	.
8F	.	.
8f 8d- 8B-	.	.
*Xped	*	*
8FJ	.	.
=15	=15	=15
*ped	*	*
8FFL	8ffL]	.
8F	8dd-	.
*Xped	*	*
8f 8d- 8B-	8cc	.
8FJ	8b-J	.
*ped	*	*
8FFL	4cc	.
8F	.	.
.	8qqdd-/L	.
.	8qqcc/	.
.	8qqb-/J	.
8f 8e- 8An	8ccL	.
*Xped	*	*
8FJ	8dd-J	.
=16	=16	=16
*ped	*	*
8BB-L	4b-)	.
8F	.	.
8f 8d-	(>4ff	.
*Xped	*	*
8FJ	.	.
8e-L 8c	4ee-	.
8F	.	.
8g- 8e-	4gg-	.
8FJ	.	.
!!LO:LB:g=original
=17	=17	=17
8fL 8d-	8ffL	.
8F	8dd-	.
8f 8d- 8B-	8cc	.
8FJ	8b-J	.
8e-L 8An	4cc	.
8F	.	.
.	8qqdd-/L	.
.	8qqcc/	.
.	8qqb-/J	.
8f	8.ccL	.
8FJ	.	.
.	16dd-Jk	.
=18	=18	=18
*ped	*	*
8BB-L	4b-	.
8F	.	.
8e- 8c	4ee-	.
*Xped	*	*
8FJ	.	.
8fL 8d-	4ff	.
8F	.	.
8e- 8c	4ee-	.
8FJ	.	.
=19	=19	=19
*ped	*	*
!LO:N:vis=2	!	!
8fL 8d-	2.ff\	.
8F	.	.
8F	.	.
*Xped	*	*
8FJ	.	.
8fL 8d-	.	.
8G-	.	.
8e- 8c	4ee-	.
8A-J	.	.
=20	=20	=20
*ped	*	*
8D-L	8.ffL	.
8A-	.	.
.	16dd-Jk	.
!LO:N:vis=2	!	!
8f 8d-	2a-\	.
8A-J	.	.
8A-L	.	.
8A-	.	.
8f 8d-	4b-	.
*Xped	*	*
8A-J	.	.
=21	=21	=21
*ped	*	*
!LO:N:vis=2	!	!
8g-L 8e-	2.cc	.
8A-	.	.
8A-	.	.
8A-J	.	.
8B-L	.	.
*Xped	*	*
8A-	.	.
8f 8d-	4dd-	.
8A-J	.	.
=22	=22	=22
*ped	*	*
!LO:N:n=2:vis=2.	!	!
8g->L 8c>\	8.ee-L>	.
16A-\L	.	.
*Xped	*	*
16a->\J	16ffJk	.
*ped	*	*
!LO:N:vis=2	!	!
8b->\	2gg-/	.
8A-\J	.	.
8A-\L	.	.
*Xped	*	*
8A-\	.	.
*ped	*	*
8a-> 8d->\	4ff/	.
8A-\J	.	.
*Xped	*	*
.	.	.
!!LO:LB:g=original
=23	=23	=23
*ped	*	*
8a->L 8c>	4.ff/	.
8A-	.	.
8g-> 8c>	.	.
*Xped	*	*
8A-J	8ee-/	.
*ped	*	*
8f>L 8d->	4dd-/	.
*Xped	*	*
8A-	.	.
*	*rscale:2	*
!	!LO:TX:t=P:note-head-side tuplet number:problem	!
!	!LO:TUP:b	!
*ped	*	*
8g-> 8c>	(28ddnL>	.
.	28ee-	.
.	28een	.
.	28ff	.
8A-J	.	.
.	28aa-	.
*Xped	*	*
.	28ggn	.
.	28gg-XJ)	.
*	*rscale:1	*
=24	=24	=24
*ped	*	*
8D-L	8.ffL	.
8A-	.	.
.	16dd-Jk	.
!LO:N:vis=2	!	!
8f 8d-	2a-\	.
8A-J	.	.
8A-L	.	.
8A-	.	.
8A-	4b-	.
*Xped	*	*
8A-J	.	.
=25	=25	=25
*ped	*	*
!LO:N:vis=2	!	!
8g-L 8e-	2.cc	.
8A-	.	.
8A-	.	.
8A-J	.	.
8B-L	.	.
*Xped	*	*
8A-	.	.
*ped	*	*
8f 8d-	4dd-	.
8A-J	.	.
*Xped	*	*
.	.	.
=26	=26	=26
*^	*	*
*ped	*	*	*
!	!LO:N:n=2:vis=2	!	!
8ryy	8g->L 8c>\	8.ee-L>	.
4A-	16A-\L	.	.
.	16a->\J	16ffJk	.
!	!LO:N:vis=2	!	!
.	8b->\	2gg-)/	.
2ryy	8A-\J	.	.
.	8A-\L	.	.
.	8A-\	.	.
.	8e->\	(>4cc/	.
8ryy	8A-\J	.	.
*v	*v	*	*
=27	=27	=27
!LO:N:vis=2	!	!
8g->L	2ee-/)	.
!LO:TX:b:t=P:łuk do taktu 28 skierowany w górę:problem	!	!
(<8A-	.	.
8A-	.	.
8A-J	.	.
8A-L>	2r	.
8A-	.	.
8A-	.	.
8A-J	.	.
*Xped	*	*
.	.	.
*kcancel	*	*
!!LO:PB:g=original
=28	=28	=28
*k[f#c#g#d#]	*k[f#c#g#d#]	*
!	!LO:TX:b:i:t=sotto voce.	!
4GG# 4CC#	(>8G#<L	.
!	!	!LO:HP:b=2
.	8G#<	<
4GG# 4DD#	8G#<	.
.	8G#<J	.
4C# 4EE	8G#<L	.
.	8G#<	.
4BB#X 4DD#	8G#<	.
.	8G#<J	.
=29	=29	=29
4GG# 4DD#	8G#<L	.
.	8G#<	.
4GG# 4EE	8G#<	.
.	8G#<J	.
4D# 4FF#	8G#<L	.
.	8G#<	.
4C# 4EE	8G#<	.
.	8G#<J	.
=30	=30	=30
*	*	*^
!	!	!	!LO:HP:b=2
4C# 4EE	8G#<L	.	<
.	8G#<	.	.
4D# 4GG#	8G#<	.	.
.	8G#<J	.	.
4E 4C#	8G#<L	[	.
.	8G#<	.	.
4D# 4GG#	8G#<	.	.
.	8G#<J	.	.
*	*	*v	*v
=31	=31	=31
!LO:TX:t=P:problem:note position:1D# 1GG# na środku taktu	!	!
[>1D# [<1GG#	8G#<L	.
.	8G#<	.
.	8G#<	.
.	8G#<J	.
.	8G#<L	.
.	8G#<	.
.	8G#<	.
.	8G#<J	.
=32	=32	=32
4D#\] 4GG#\]	8G#<L	.
.	8G#<	.
4E 4C#	8G#<	.
.	8G#<J	.
4D# 4GG#	8G#<L	.
.	8G#<	.
4C# 4EE	8G#<	.
.	8G#<J	.
!!LO:LB:g=original
=33	=33	=33
4D# 4GG#	8G#<L	.
.	8G#<	.
4C# 4EE	8G#<	.
.	8G#<J	.
4BB#X 4DD#	8G#<L	.
.	8G#<	.
4C# 4CC#	8G#<	.
.	8G#<J	.
=34	=34	=34
4BB#X 4DD#	8G#<L	.
.	8G#<	.
4C# 4EE	8G#<	.
.	8G#<J	.
4D# 4DD#	8G#<L	.
.	8G#<	.
4E 4CC#	8G#<	.
.	8G#<J	.
=35	=35	=35
*ped	*	*
!LO:TX:t=P:problem:note position:1D# 1GG# na środku taktu	!	!
1D# 1GG#)	8G#L	.
!	!LO:TX:b:i:t=cres _:problem:dynamics with extention lines	!
!	!	!LO:TX:i:t=cres
.	8g# 8G#	<
.	8g# 8G#	.
.	8g#J 8G#	.
.	8g#L 8G#	.
.	8g# 8G#	.
.	8g# 8G#	.
*Xped	*	*
.	8g#J 8G#	.
=36	=36	=36
*	*^	*
(<4GG# 4CC#	8g#L 8G#	2rAyy	.
.	8g# 8G#	.	.
4GG# 4DD#	8g# 8G#	.	.
.	8g#J 8G#	.	.
4C# 4EE	8g#L 8G#	4c#	.
.	8g# 8G#	.	.
4BB#X 4DD#	8g# 8G#	4B#X	.
.	8g#J 8G#	.	.
=37	=37	=37	=37
4GG# 4DD#	8g#L 8G#	2rAyy	.
.	8g# 8G#	.	.
4GG# 4EE	8g# 8G#	.	.
.	8g#J 8G#	.	.
4D# 4FF#	8g#L 8G#	4d#	.
.	8g# 8G#	.	.
4C# 4EE	8g# 8G#	[<4c#	.
.	8g#J 8G#	.	.
!!LO:LB:g=original
=38	=38	=38	=38
4C# 4EE	8g#L 8G#	4c#]	.
.	8g# 8G#	.	.
4D# 4GG#	8g# 8G#	4d#	.
.	8g#J 8G#	.	.
4E/ 4C#/	8g#L 8G#	4e	.
.	8g# 8G#	.	.
4D# 4GG#)	8g# 8G#	4d#	.
.	8g#J 8G#	.	.
=39	=39	=39	=39
(<4qqGGG#/	.	.	.
*ped	*	*	*
!LO:TX:t=P:note position:problem:1D# 1GG# na środku taktu	!	!LO:TX:t=P:problem:note position:1d# na środku taktu	!
1D# 1GG#)	8g#L 8G#	1d#	.
.	8g# 8G#	.	.
.	8g# 8G#	.	.
.	8g#J 8G#	.	.
.	8g#L 8G#	.	.
.	8g# 8G#	.	.
.	8g# 8G#	.	.
*Xped	*	*	*
.	8g#J 8G#	.	[[
=40	=40	=40	=40
*ped	*	*	*
!	!	!LO:TX:t=P:problem:note position	!
!	!	!	!LO:DY:rj
(>2EE 2EEE	8bL 8B	2g#^< 2e	ff
.	8b 8B	.	.
*Xped	*	*	*
.	8b 8B	.	.
.	8bJ 8B	.	.
*ped	*	*	*
!	!	!LO:TX:t=P:problem:note position	!
2BB 2BBB	8bL 8B	2g#^< 2d#	.
.	8b 8B	.	.
.	8b 8B	.	.
*Xped	*	*	*
.	8bJ 8B	.	.
=41	=41	=41	=41
*ped	*	*	*
!	!	!LO:TX:t=P:problem:note position	!
2EE 2EEE	8bL 8B	2g#^< 2e	.
.	8b 8B	.	.
.	8b 8B	.	.
*Xped	*	*	*
.	8bJ 8B	.	.
*ped	*	*	*
!	!	!LO:TX:t=P:problem:note position	!
4.BB 4.BBB	8bL 8B	2g#^< 2d#	.
.	8b 8B	.	.
.	8b 8B	.	.
*Xped	*	*	*
8AA#X 8AAA#X	8bJ 8B	.	.
=42	=42	=42	=42
*ped	*	*	*
!	!	!LO:TX:t=P:problem:note position	!
2GG# 2GGG#	8bL 8B	2g#^< 2d#	.
.	8b 8B	.	.
*Xped	*	*	*
.	8b 8B	.	.
.	8bJ 8B	.	.
*ped	*	*	*
!	!	!LO:TX:t=P:problem:note position	!
2D# 2DD#	8bL 8B	2f##X^< 2d#	.
.	8b 8B	.	.
.	8b 8B	.	.
*Xped	*	*	*
.	8bJ 8B	.	.
*	*v	*v	*
!!LO:LB:g=original
=43	=43	=43
*ped	*	*
2GG#\ 2GGG#\)	8b^<L 8g# 8d# 8B	.
.	8G#<	.
.	8G#<	.
.	8G#<J	.
2rGG	8G#<L	.
.	8G#<	.
.	8G#<	.
*Xped	*	*
.	8G#<J	.
=44	=44	=44
(<4GG# 4CC#	8G#<L	.
!	!	!LO:HP:b=2
.	8G#<	<
4GG# 4DD#	8G#<	.
.	8G#<J	.
4C# 4EE	8G#<L	.
.	8G#<	.
4BB#X 4DD#	8G#<	.
.	8G#<J	.
=45	=45	=45
4GG# 4DD#	8G#<L	.
.	8G#<	.
4GG# 4EE	8G#<	.
.	8G#<J	.
4D# 4FF#	8G#<L	.
.	8G#<	.
4C# 4EE	8G#<	.
.	8G#<J	.
=46	=46	=46
4C# 4EE	8G#<L	.
.	8G#<	.
4D# 4GG#	8G#<	.
.	8G#<J	[
4E 4C#	8G#<L	.
.	8G#<	.
4D# 4GG#	8G#<	.
.	8G#<J	.
=47	=47	=47
!LO:TX:t=P:problem:note position:1D# 1GG# na środku taktu	!	!
[>1D# [<1GG#	8G#<L	.
.	8G#<	.
.	8G#<	.
.	8G#<J	.
.	8G#<L	.
.	8G#<	.
.	8G#<	.
.	8G#<J	.
!!LO:LB:g=original
=48	=48	=48
4D#] 4GG#]	8G#<L	.
.	8G#<	.
4E 4C#	8G#<	.
.	8G#<J	.
4D# 4GG#	8G#<L	.
.	8G#<	.
4C# 4EE	8G#<	.
.	8G#<J	.
=49	=49	=49
4D# 4GG#	8G#<L	.
.	8G#<	.
4C# 4EE	8G#<	.
.	8G#<J	.
4BB#X 4DD#	8G#<L	.
.	8G#<	.
4C# 4CC#	8G#<	.
.	8G#<J	.
=50	=50	=50
4BB#X 4DD#	8G#<L	.
.	8G#<	.
4C# 4EE	8G#<	.
.	8G#<J	.
4D# 4DD#	8G#<L	.
.	8G#<	.
4E 4CC#	8G#<	.
.	8G#<J	.
=51	=51	=51
*ped	*	*
!LO:TX:t=P:problem:note position:1D# 1GG# na środku taktu	!	!
1D# 1GG#)	8G#L	[
!	!LO:TX:b:i:t=cres _:problem:dynamics with extention lines	!
!	!	!LO:TX:i:t=cres
.	8g# 8G#	<
.	8g# 8G#	.
.	8g#J 8G#	.
.	8g#L 8G#	.
.	8g# 8G#	.
.	8g# 8G#	.
*Xped	*	*
.	8g#J 8G#	.
=52	=52	=52
*	*^	*
(<4GG# 4CC#	8g#L 8G#	2rDyy	.
.	8g# 8G#	.	.
4GG# 4DD#	8g# 8G#	.	.
.	8g#J 8G#	.	.
4C# 4EE	8g#L 8G#	4c#	.
.	8g# 8G#	.	.
4BB#X 4DD#	8g# 8G#	4B#X	.
.	8g#J 8G#	.	.
!!LO:LB:g=original
=53	=53	=53	=53
4GG# 4DD#	8g#L 8G#	2rDyy	.
.	8g# 8G#	.	.
4GG# 4EE	8g# 8G#	.	.
.	8g#J 8G#	.	.
4D# 4FF#	8g#L 8G#	4d#	.
.	8g# 8G#	.	.
4C# 4EE	8g# 8G#	[>4c#	.
.	8g#J 8G#	.	.
=54	=54	=54	=54
4C# 4EE	8g#L 8G#	4c#]	.
.	8g# 8G#	.	.
4D# 4GG#	8g# 8G#	4d#	.
.	8g#J 8G#	.	.
4E/ 4C#/	8g#L 8G#	4e	.
.	8g# 8G#	.	.
4D# 4GG#)	8g# 8G#	4d#	.
.	8g#J 8G#	.	.
=55	=55	=55	=55
(<4qqGGG#/	.	.	.
*ped	*	*	*
!LO:TX:t=P:problem:note position:1D# 1GG# na środku taktu	!	!LO:TX:t=P:problem:note position 1d# na środku taktu	!
1D# 1GG#)	8g#L 8G#	1d#	.
.	8g# 8G#	.	.
.	8g# 8G#	.	.
.	8g#J 8G#	.	.
.	8g#L 8G#	.	.
.	8g# 8G#	.	.
.	8g# 8G#	.	.
*Xped	*	*	*
.	8g#J 8G#	.	[
=56	=56	=56	=56
*ped	*	*	*
!	!	!LO:TX:t=P:problem:note position	!
!	!	!	!LO:DY:rj
(>2EE 2EEE	8bL 8B	2g#^< 2e	ff
.	8b 8B	.	.
*Xped	*	*	*
.	8b 8B	.	.
.	8bJ 8B	.	.
*ped	*	*	*
!	!	!LO:TX:t=P:problem:note position	!
2BB 2BBB	8bL 8B	2g#^< 2d#	.
.	8b 8B	.	.
.	8b 8B	.	.
*Xped	*	*	*
.	8bJ 8B	.	.
=57	=57	=57	=57
*ped	*	*	*
!	!	!LO:TX:t=P:problem:note position	!
2EE 2EEE	8bL 8B	2g#^< 2e	.
.	8b 8B	.	.
*Xped	*	*	*
.	8b 8B	.	.
.	8bJ 8B	.	.
*ped	*	*	*
!	!	!LO:TX:t=P:problem:note position	!
4.BB 4.BBB	8bL 8B	2g#^< 2d#	.
.	8b 8B	.	.
.	8b 8B	.	.
8AA#X 8AAA#X	8bJ 8B	.	.
*Xped	*	*	*
.	.	.	.
!!LO:PB:g=original
=58	=58	=58	=58
*ped	*	*	*
*	*tremolo	*	*
!	!	!LO:TX:t=P:problem:note position	!
!LO:TX:t=P:slur:problem:od tego taktu łuk do 2GG# 2GGG# jest skierowany w dół	!	!	!
2GG# 2GGG#	8bL 8B	2g#^< 2d#	.
.	8b 8B	.	.
*Xped	*	*	*
.	8b 8B	.	.
.	8bJ 8B	.	.
*ped	*	*	*
!	!	!LO:TX:t=P:problem:note position	!
2D# 2DD#	8bL 8B	2f##X^< 2d#)	.
.	8b 8B	.	.
.	8b 8B	.	.
*Xped	*	*	*
.	8bJ 8B	.	.
*	*Xtremolo	*	*
*	*v	*v	*
=59	=59	=59
*ped	*	*
2GG# 2GGG#)	8bL 8g# 8d# 8B	fz
.	8g#	.
.	8g#	.
.	8g#J	.
*	*tremolo	*
2r	8g#L	.
.	8g#	.
.	8g#	.
*Xped	*	*
.	8g#J	.
*	*Xtremolo	*
=60	=60	=60
*^	*^	*
*ped	*	*	*	*
(>2F#\ 2GG#\ 2FF#\	2rFFFyy	(>8g#L	2b#X 2B#X	p
.	.	8g#	.	.
.	.	8g#	.	.
*Xped	*	*	*	*
.	.	8g#J	.	.
*ped	*	*	*	*
!	!LO:TX:t=P:problem:note position:2GG# za 4E 4EE	!	!	!
4E\ 4EE\	2GG#	8g#L	2cc# 2c#	.
*Xped	*	*	*	*
.	.	8g#	.	.
*ped	*	*	*	*
4C#\ 4CC#\	.	8g#	.	.
.	.	8g#J	.	.
*Xped	*	*	*	*
.	.	.	.	.
*v	*v	*	*	*
=61	=61	=61	=61
*ped	*	*	*
!LO:S:s=1:note:problem:note-level slur	!	!	!
2.GG# 2.GGG#)	8g#L	2.dd# 2.cc# 2.d#	.
.	8g#	.	.
.	8g#	.	.
.	8g#J	.	.
.	8g#L	.	.
*Xped	*	*	*
.	8g#	.	.
4G#\ 4GG#\	8g#	4dd# 4b#X 4d#	.
.	8g#J	.	.
=62	=62	=62	=62
*	*tremolo	*	*
(>2G# 2C#	8g#L	4ee 4dd# 4e	.
.	8g#	.	.
.	8g#	4ee 4cc# 4e	.
.	8g#J	.	.
2G#\ 2GG#\	8g#L	4dd# 4cc# 4d#	.
.	8g#	.	.
.	8g#	4dd# 4b#X 4d#	.
.	8g#J	.	.
*	*Xtremolo	*	*
=63	=63	=63	=63
!	!	!LO:TX:t=P:problem:note position:1cc# 1c# na środku taktu	!
2A 2AA	8g#L	1cc# 1c#	.
.	8g#J	.	.
.	8f#L	.	.
.	8f#J	.	.
4G#\ 4GG#\	8g#L	.	.
.	8g#J	.	.
4F#\ 4FF#\	8aL	.	.
.	8aJ	.	.
*	*v	*v	*
!!LO:LB:g=original
=64	=64	=64
*^	*	*
*ped	*	*	*
8G#L	2GG#)	2g# 2d# 2B#X	.
8G#	.	.	.
*Xped	*	*	*
8G#	.	.	.
8G#J	.	.	.
*ped	*	*	*
8G#L	2GG# 2CC#	4g# 4e 4c#	.
8G#	.	.	.
8G#	.	4g# 4c# 4A#X	.
8G#J	.	.	.
*Xped	*	*	*
.	.	.	.
=65	=65	=65	=65
*ped	*	*	*
8G#L	4GG# 4GGG#	4g# 4d#X 4B	.
*Xped	*	*	*
8G#	.	.	.
*ped	*	*	*
!	!LO:TX:t=P:problem:akcent bezpośrednio nad 2.GG#	!	!
8G#	2.GG#^> 2.CC#	4g# 4e 4c#	.
8G#J	.	.	.
8G#L	.	4g# 4c# 4A#X	.
8G#	.	.	.
8G#	.	4g# 4e 4c#	.
8G#J	.	.	.
=66	=66	=66	=66
8G#L	4GG# 4CC#	4g# 4e 4c#	.
*Xped	*	*	*
.	.	.	.
8G#	.	.	.
*ped	*	*	*
!	!LO:TX:t=P:problem:akcent bezpośrednio nad 2.GG#	!	!
8G#	2GG#^> 2GGG#	4g# 4d# 4B#X	.
8G#J	.	.	.
*Xped	*	*	*
8G#L	.	4g# 4f# 4d#	.
8G#	.	.	.
*ped	*	*	*
8G#	4GG# 4CC#	4g# 4e 4c#	.
8G#J	.	.	.
*Xped	*	*	*
.	.	.	.
=67	=67	=67	=67
*ped	*	*	*
!	!LO:TX:t=P:problem:note position:1GG# 1GGG# na środku taktu	!LO:TX:t=P:problem:note position:1g# 1d# 1B# na środku taktu	!
8G#L	1GG# 1GGG#	1g# 1d# 1B#X	.
8G#	.	.	.
8G#	.	.	.
8G#J	.	.	.
8G#L	.	.	.
8G#	.	.	.
8G#	.	.	.
*Xped	*	*	*
8G#J	.	.	.
=68	=68	=68	=68
*	*	*^	*
*ped	*	*	*	*
!LO:S:s=1:note:problem:note-level slur	!	!	!	!
(>2F# 2FF#	8GG#L	8g#L	(>2b#X 2d# 2B#X)	<
.	8GG#	8g#	.	.
.	8GG#	8g#	.	.
.	8GG#J	8g#J	.	.
*Xped	*	*	*	*
4E 4GG# 4EE	2rAAAyy	8g#L	2cc# 2c#	.
.	.	8g#	.	.
4C# 4CC#	.	8g#	.	.
.	.	8g#J	.	.
*v	*v	*	*	*
!!LO:LB:g=original
=69	=69	=69	=69
*ped	*	*	*
!LO:TX:t=P:problem:note position:1gg# 1GGG# na środku taktu	!	!	!
1GG# 1GGG#)	8g#L	2.dd# 2.cc# 2.d#	.
.	8g#	.	.
.	8g#	.	[
.	8g#J	.	.
.	8g#L	.	.
.	8g#	.	<
!	!	!LO:TX:t=P:problem:note position	!
.	8g#	4dd# 4b#X 4d#	.
*Xped	*	*	*
.	8g#J	.	.
=70	=70	=70	=70
*	*tremolo	*	*
*ped	*	*	*
2GG# 2CC#	8g#L	4ee 4dd# 4e	.
.	8g#	.	.
*Xped	*	*	*
.	8g#	4ee 4cc# 4e	[>
.	8g#J	.	.
*ped	*	*	*
2G#\ 2GG#\	8g#L	4dd# 4cc# 4d#	.
.	8g#	.	]
*Xped	*	*	*
.	8g#	4dd# 4b#X 4d#	<
.	8g#J	.	.
*	*Xtremolo	*	*
=71	=71	=71	=71
*ped	*	*	*
2E#X 2EE#X	2cc# 2b 2g#	8c#L	[f
.	.	8c#	.
.	.	8c#	.
*Xped	*	*	*
.	.	8c#J	.
*ped	*	*	*
2F# 2FF#	4cc# 4a 4g#	8c#L	.
.	.	8c#	.
.	4cc# 4a 4f#	8c#	.
*Xped	*	*	*
.	.	8c#J	.
*	*v	*v	*
=72	=72	=72
*^	*	*
*ped	*	*	*
8G#L	2BB#X 2BBB#X	2g# 2f# 2d#	.
8G#	.	.	.
*Xped	*	*	*
8G#	.	.	.
8G#J	.	.	.
*ped	*	*	*
8G#L	2C# 2CC#	4g# 4f# 4c#)	<
8G#	.	.	.
8G#	.	(>4a#X 4e 4c#	.
8G#J	.	.	.
.	.	.	[
=73	=73	=73	=73
8G#L	2.GG# 2.GGG#	2a#X 2e 2c#	>
8G#	.	.	.
8G#	.	.	.
8G#J	.	.	]
*Xped	*	*	*
8G#L	.	4g# 4d# 4B#X)	.
8G#	.	.	.
*ped	*	*	*
8G#	4GG# 4CC#	(>4a#/ 4e/ 4c#/	.
8G#J	.	.	.
!!LO:LB:g=original
=74	=74	=74	=74
8G#L	2.GG# 2.GGG#	2a#X 2e 2c#	>
8G#	.	.	.
8G#	.	.	.
8G#J	.	.	]
*Xped	*	*	*
8G#L	.	4g# 4d# 4B#X)	.
8G#	.	.	.
*ped	*	*	*
8G#	4GG#\ 4CC#\	(>4a# 4e 4c#	.
8G#J	.	.	.
*v	*v	*	*
=75	=75	=75
*^	*	*
*	*^	*	*
8G#L	4GG#/	2GGG#\	4a#y 4e 4c#	>
8G#	.	.	.	.
8G#	4GG#/	.	4g# 4d# 4B#X)	]
*Xped	*	*	*	*
8G#J	.	.	.	.
2ryy	8A-L	2rFFFyy	8A-X<L	>
.	8Fny	.	8A-<	.
.	8G-X	.	8A-<	.
.	8E-yJ	.	8A-<J	.
*	*v	*v	*	*
*v	*v	*	*
*kcancel	*kcancel	*
=76|	=76|	=76|
*k[b-e-a-d-g-]	*k[b-e-a-d-g-]	*
*ped	*	*
!	!	!LO:DY:rj
8D-L	(>8.ffL	p
8A-	.	.
.	16dd-Jk	.
!LO:N:vis=2.	!	!
8f 8d-	2a-\	.
8A-J	.	.
8A-L	.	.
8A-	.	.
8A-	4b-	.
*Xped	*	*
8A-J	.	.
=77	=77	=77
*ped	*	*
!LO:N:vis=2	!	!
8g->L 8e->	2.cc/	.
8A-	.	.
8A-	.	.
8A-J	.	.
8B-L	.	.
*Xped	*	*
8A-	.	.
*ped	*	*
8f> 8d->	4dd-/	.
8A-J	.	.
*Xped	*	*
.	.	.
=78	=78	=78
*ped	*	*
!LO:N:n=2:vis=2	!	!
8g->L 8c>\	8.ee-L>	.
16A-\L	.	.
16a->\J	16ffJk	.
!LO:N:vis=2	!	!
8b->\	2gg-/	.
8A-\J	.	.
8A-\L	.	.
*Xped	*	*
8A-\	.	.
*ped	*	*
8a-> 8d->\	4ff)/	.
8A-\J	.	.
*Xped	*	*
.	.	.
!!LO:LB:g=original
=79	=79	=79
*ped	*	*
!LO:N:n=2:vis=2	!	!
8a-> 8c>L	(>4.ff/	.
8A-	.	.
8g->	.	.
*Xped	*	*
8A-J	8ee-/	.
*ped	*	*
8d->L 8f>	8.dd-L>	.
8A-	.	.
.	16ddnJk	.
*Xped	*	*
!	!LO:TX:t=P:note-head-side tuplet number:problem	!
!	!LO:TUP:b	!
8c> 8g->	(<40ee-LL>	.
.	40ff	.
.	40ee-	.
.	40dd	.
.	40ee-	.
!	!LO:TX:b:i:t=smorzando_:dur=7q1e:ext=ud:problem:text with extension lines	!
8A-J	40een	.
.	40ff	.
.	40aa-	.
.	40ggn	.
.	40gg-XJJ)	.
=80	=80	=80
*ped	*	*
8D-L	8.ffL	.
8A-	.	.
.	16dd-Jk	.
!LO:N:vis=2	!	!
8d- 8f	2a-\	.
8A-J	.	.
8A-L	.	.
8A-	.	.
!LO:TX:b:i:t=slentando.	!	!
8A-	4b-	.
*Xped	*	*
8A-J	.	.
=81	=81	=81
*ped	*	*
8g->L 8e->	4cc/)	.
8A-	.	.
(>8A-	4r	.
8A-J	.	.
8B-L	4r	.
8A-J)	.	.
*Xped	*	*
4r	[>4bb-	>
=82	=82	=82
1rF	4bb-]	]
.	(>4aa-	f
.	4gg-	.
.	4cc	.
=83	=83	=83
1rF	4ff	>
.	4ee-	.
.	4dd-	.
.	4b-)	]
!!LO:LB:g=original
=84	=84	=84
*^	*	*
*	*	*^	*
*ped	*	*	*	*
!	!	!LO:TX:t=P:problem:note position:1g- 1e- na środku taktu	!	!
8rA	1AA-	1g- 1e-	(>2B-	.
!	!	!	!	!LO:DY:rj
8A-L<	.	.	.	p
*Xped	*	*	*	*
8A-	.	.	.	.
8A-J	.	.	.	.
*ped	*	*	*	*
8A-L<	.	.	2c	]
8A-	.	.	.	.
8A-	.	.	.	.
8A-J	.	.	.	.
*Xped	*	*	*	*
.	.	.	.	.
=85	=85	=85	=85	=85
*ped	*	*	*	*
!	!LO:TX:t=P:problem:note position:1D- na środku taktu	!	!	!
!	!	!LO:TX:t=P:problem:note position:1f na środku taktu	!	!
8A-L<	1D-	1f	[<2d-	.
8A-	.	.	.	.
8A-	.	.	.	.
8A-J	.	.	.	.
!	!	!	!	!LO:HP:a
8A-L<	.	.	8d-L]	<
8A-	.	.	8d-	.
8A-	.	.	8.e-	.
*Xped	*	*	*	*
8A-J	.	.	.	.
.	.	.	16d-Jk	[
=86	=86	=86	=86	=86
*ped	*	*	*	*
!	!LO:TX:t=P:problem:note position:1AA- na środku taktu	!	!	!
!	!	!LO:TX:t=P:problem:note position:1g- 1e- na środku taktu	!	!
8A-L<	1AA-	1g- 1e-	4d-	.
8A-	.	.	.	.
8A-	.	.	4c	.
*Xped	*	*	*	*
8A-J	.	.	.	.
*ped	*	*	*	*
!	!	!	!	!LO:HP:a
8A-L<	.	.	4b-	>
8A-	.	.	.	.
8A-	.	.	4c	]
8A-J	.	.	.	.
*	*	*v	*v	*
=87	=87	=87	=87
!	!LO:TX:t=P:problem:note position:1AA- na środku taktu	!	!
!	!	!LO:TX:t=P:problem:note position:1g- 1e- 1c na środku taktu	!
8A-L<	1AA-	1g- 1e- 1c	.
8A-	.	.	.
8A-	.	.	.
8A-J	.	.	.
8A-L<	.	.	.
8A-	.	.	.
8A-	.	.	.
*Xped	*	*	*
8A-J	.	.	.
=88	=88	=88	=88
*ped	*	*	*
!	!	!LO:TX:t=P:problem:note position:1f 1d- na środku taktu	!
8A-L	(<2D-	1f 1d-	pp
8A-	.	.	.
!	!	!LO:TX:a:i:t=ritenuto.	!
8A-	.	.	.
8A-J	.	.	.
8A-L	2AA-	.	.
8A-	.	.	.
8A-	.	.	.
8A-J	.	.	.
*v	*v	*	*
=89	=89	=89
1A- 1DD-)	1f 1d-;>)	.
*Xped	*	*
.	.	.
==	==	==
*-	*-	*-
!!title: @{OTL}; @{OPS} @{ONM} publisher: @{PPR}
!!!RDF**kern: > = above
!!!RDF**kern: < = below
!!!RDF**kern: N = linked
!!!RDF**dynam: < = "cres", fontstyle="italic"
!!!RDF**dynam: > = "dim:", fontstyle="italic"
!!!ENC: Emilia Ziętek
!!!END: 2019-05-09
!!!EED: Wojciech Jakubiak-Danek
!!!EST: 2019-05-20
!!!EED2: Mateusz Mrugas
!!!EST2: 2020-04-28
!!!rism-genre: Prelude
!!!rism-key: D-flat major
!!!rism-opus: op. 28, no. 15
!!!rism-title: Prelude in D-flat major op. 28, no. 15
!!!rism-permalink: https://opac.rism.info/search?id=1001065081&View=rism
!!!rism-773a-OPR: 1001065100
!!!rism-parent-permalink: https://opac.rism.info/search?id=1001065100&View=rism
